!!!OTL: Es waren zwei Gespielen
!!!ARE: Europa, Mitteleuropa, Deutschland
!!!SCT: L0070B
!!!YEM: Copyright 1995, estate of Helmut Schaffrath.
**kern
*ICvox
*Ivox
*M3/4
*k[b-]
*F:
{8c
=1
8f
8a
4cc
4g
=2
4a
4g
8r}
{8cc
=3
8cc
8ee
4ff
4dd
=4
4ee
4cc
8r}
{8cc
=5
8cc
8ee
4ff
4gg
=6
8ff
8dd
4cc
8r}
{8a
=7
8b-
8dd
4cc
4g
=8
4a
4f
8r}
{8cc
=9
8cc
8ee
4ff
4gg
=10
8ff
8dd
4cc
8r}
{8a
=11
8b-
8dd
4cc
4g
=12
4a
4f
8r}
==
!!!AGN: Lied
!! Muendl. aus Schlesien
!!!ONB: ESAC (Essen Associative Code) Database: ERK5
!!!AMT: simple triple
!!!AIN: vox
!!!EED: Helmut Schaffrath
!!!EEV: 1.0
*-
